packages/kaspersky-hexa-ui-icons/src/iconsSVGs/16/Mail.svg

<svg width="16" height="16" viewBox="0 0 16 16" fill="none" xmlns="http://www.w3.org/2000/svg">
<path fill-rule="evenodd" clip-rule="evenodd" d="M1.78398 2.93809C1.73111 2.97086 1.68209 3.01184 1.63883 3.0609C1.60822 3.09561 1.58199 3.13267 1.56008 3.1714C1.2105 3.58833 1 4.12583 1 4.7125V11.2875C1 12.613 2.07452 13.6875 3.4 13.6875H12.6C13.9255 13.6875 15 12.613 15 11.2875V4.7125C15 4.13511 14.7961 3.60534 14.4564 3.19127C14.4317 3.14374 14.4006 3.09852 14.3632 3.0568C14.3162 3.00443 14.2627 2.96146 14.2049 2.92803C13.7797 2.54537 13.2171 2.3125 12.6 2.3125H3.4C2.77755 2.3125 2.21045 2.54946 1.78398 2.93809ZM3.4 3.6125H12.6C12.6536 3.6125 12.7062 3.61633 12.7577 3.62373L8.67817 7.28309C8.31952 7.6048 7.77684 7.60709 7.41549 7.28843L3.25746 3.62165C3.30412 3.61561 3.35169 3.6125 3.4 3.6125ZM13.6861 4.53733C13.6953 4.59437 13.7 4.65288 13.7 4.7125V11.2875C13.7 11.895 13.2075 12.3875 12.6 12.3875H3.4C2.79249 12.3875 2.3 11.895 2.3 11.2875V4.7125C2.3 4.64847 2.30547 4.58571 2.31597 4.52468L6.55566 8.26346C7.4115 9.01819 8.69679 9.01275 9.54622 8.25082L13.6861 4.53733Z" fill="black"/>
</svg>

<svg xmlns="http://www.w3.org/2000/svg" width="16" height="16" fill="none" viewBox="0 0 16 16"><path fill="#000" fill-rule="evenodd" d="M1.784 2.938a.65.65 0 0 0-.2239.2333A2.39 2.39 0 0 0 1 4.7126v6.575c0 1.3255 1.0745 2.4 2.4 2.4h9.2c1.3255 0 2.4-1.0745 2.4-2.4v-6.575a2.39 2.39 0 0 0-.5436-1.5212.65.65 0 0 0-.0932-.1345.65.65 0 0 0-.1583-.1288A2.39 2.39 0 0 0 12.6 2.3125H3.4c-.6224 0-1.1896.237-1.616.6256m1.616.6745h9.2q.0804 0 .1577.0112L8.6782 7.2831a.95.95 0 0 1-1.2627.0053l-4.158-3.6668a1.1 1.1 0 0 1 .1425-.009m10.2861.9248q.0138.0857.0139.1752v6.575c0 .6075-.4925 1.1-1.1 1.1H3.4c-.6075 0-1.1-.4925-1.1-1.1v-6.575q.0001-.0961.016-.1878l4.2397 3.7388c.8558.7547 2.141.7493 2.9905-.0127z"/></svg>
